images/css-badge.svg

<svg width="88" height="97" viewBox="0 0 88 97" fill="none" xmlns="http://www.w3.org/2000/svg">
<path fill-rule="evenodd" clip-rule="evenodd" d="M0 0H88L80.3966 87.5316L44 97L7.92874 87.5316L0 0Z" fill="#D1D2D6"/>
<path fill-rule="evenodd" clip-rule="evenodd" d="M22.5533 18.145H70.7026L68.4377 45.1264L66.6949 72.5197L44.0575 78.4206L23.0771 72.4843L21.5703 58.2531L31.2943 57.2338L32.1086 64.9253L44.1631 68.336L57.3829 64.8899L58.3535 49.6347H37.2773V39.9059H59.0641L60.0741 27.8738H22.5533V18.145Z" fill="#F5F6F7"/>
</svg>

<svg width="88" height="97" fill="none" xmlns="http://www.w3.org/2000/svg"><path fill-rule="evenodd" clip-rule="evenodd" d="M0 0h88l-7.603 87.532L44 97 7.929 87.532 0 0z" fill="#D1D2D6"/><path fill-rule="evenodd" clip-rule="evenodd" d="M22.553 18.145h48.15l-2.265 26.981-1.743 27.394-22.637 5.9-20.98-5.936-1.508-14.23 9.724-1.02.815 7.691 12.054 3.411 13.22-3.446.97-15.255H37.277v-9.73h21.787l1.01-12.031h-37.52v-9.729z" fill="#F5F6F7"/></svg>
